X:102
T:Gillespie's Hornpipe 
B:CRE2.306 (CornphÃÂÃÂÃÂÃÂ­opa Mhic Ghiolla Easbaig)
F:file ID: cre.2/102gill_H
S:Alec Kerr (fiddle, Antrim) 
N:No repeats in this version.
L:1/8
M:C
R:hornpipe
Q:150
K:G
dc|(3BcB GB AGFA|dgfg ecAG|FGAB cBcd|ecBc A2dc|
(3BcB GB AGFA|dgfg ecAG|FGAB cedc|B2G2 G2||
Bd|dgfg dgfg|dgfg ecAG|FGAB cBcd|ecBc Aedc|
(3BcB GB AGFA|dgfg ecAG|FGAB cedc|B2G2 G2||

%%%

